X:152
T:Les Moines de Med'nham. VWMLa.152
%%VWML:Anon2-3049-p92-0
F:http://www.vwml.org/record/Anon2/3049/p92
S:Anon. MS, late 18thC, Vaughan Williams Mem. Library
O:England;Yorkshire
Z:vmp/efdss.Simon Wilson. Reviewed PJH 2008.
M:6/8
L:1/8
Q:3/8=120
K:Bb
F|[D2B2][DB] [D2B2]F|[F2d2][Fd] [F2d2]f|\
fdB e2d|c2c c2F|\
B2B B2F|d2d d2b|a2g f2=e|f2f f2:|
|:f|g2f e2d|cGE C2c|f2e d2c|BFD B2F|\
G2E B2A|G2F B2A|c2B e2c|[F3c3] [F2c2]f|
g2f e2d|cGE C2e|f2e d2c|BFD B,2b|\
a=eg fc_e|dAc BG=E|Fed cBA|[D2B2][DB] [D2B2]:|
|:F|E2C C2E|D2B, B,2B|!turn!c2B e2d|c2c !turn!c2F|\
E2C C2E|D2B, B,2B|!turn!c2B ecA|B2B, B,2:|
